Adwaita++/emblems/16/ok.svg

<svg fill="none" height="16" viewBox="0 0 16 16" width="16" xmlns="http://www.w3.org/2000/svg">
  <path d="m13.6 1h-11.2c-.7732 0-1.4.6268-1.4 1.4v11.2c0 .7732.6268 1.4 1.4 1.4h11.2c.7732 0 1.4-.6268 1.4-1.4v-11.2c0-.7732-.6268-1.4-1.4-1.4z" fill="#33d17a"/>
  <path clip-rule="evenodd" d="m3 7.71626 3.41505 3.95094 6.58495-5.69171-1.7075-1.97549-4.60949 3.98422-1.70752-1.97548z" fill="#f6f5f4" fill-rule="evenodd"/>
</svg>

<svg xmlns="http://www.w3.org/2000/svg" fill="none" width="16" height="16" viewBox="0 0 16 16">
 <path fill="url(#paint0_linear)" d="M13.6 1H2.4C1.6268 1 1 1.6268 1 2.4V13.6C1 14.3732 1.6268 15 2.4 15H13.6C14.3732 15 15 14.3732 15 13.6V2.4C15 1.6268 14.3732 1 13.6 1Z"/>
 <path fill="url(#paint1_linear)" fill-rule="evenodd" d="M3 7.71626L6.41505 11.6672L13 5.97549L11.2925 4L6.68301 7.98422L4.97549 6.00874L3 7.71626Z" clip-rule="evenodd"/>
 <defs>
  <linearGradient id="paint0_linear" x1="1" x2="15" y1="8" y2="8" gradientUnits="userSpaceOnUse">
   <stop stop-color="#33D17A"/>
  </linearGradient>
  <linearGradient id="paint1_linear" x1="3" x2="13" y1="7.834" y2="7.834" gradientUnits="userSpaceOnUse">
   <stop stop-color="#F6F5F4"/>
  </linearGradient>
 </defs>
</svg>
